X: 532
M: 6/8
L: 1/8
K: G
V: 1
|:\
(GAB) D2B | A2G TE2D |\
(GAB) D2D | E3 G3 :|\
|:\
dcB edc | dcB ABc |
dcB efg | TB3 d3  |\
dcB gfe | dcB A2A |\
V: 2 clef=bass middle=d
|:\
g3 g3 | d3  d3  |\
|:\
g3 g3 | gdB GBd |\
g3 c3 | B3  d3  |\

